X:935
T:John Brown's
S:Kerr's Merry Melodies
Z:Nigel Gatherer
M:4/4
L:1/8
K:A
c<e e2 a>fd<f | c<e e2 B>cd<B | c<e e2 a>fd<f | e<cB>c A2 A2 :|
(3cBA e>A f>A a2 | (3cBA e>A d<B B2 | (3cBA e>A f>A a2 | e<cB>c A2 A2 :|
<end>
<start>
